X:1
T:Oh, the Bitter, 87.887
T:Oh, the Bitter, 87.887
T:William Henry Monk, 1889
T:Public Domain Courtesy of the Cyber Hymnal™
C:William Henry Monk, 1889
Z:Public Domain
Z:Courtesy of the Cyber Hymnal™
%%score ( 1 2 ) ( 3 4 )
L:1/8
Q:1/4=113
M:4/4
K:D
V:1 treble 
V:2 treble 
V:3 bass 
V:4 bass 
V:1
 [DF]3 [CE] [CE]2 D2 | [FB]2 [FA]2 [FA]2 [EG]2 | [Gc]2 [GB]2 [GB]2 [GA]2 | %3
 [FA]2 [DF]2 ([DF]2 [CE]2) | [DF]3 [CE] [CE]2 D2 | [FB]2 [FA]2 [EA]2 [E^G]2 | %6
 [^Gc]2 [GB]2 [GB]2 [FA]2 | [Dd]2 [Ec]2 [Ec]2 [EB]2 | [Ge]6 [EG]2 | [EG]4 [DF]4 | [DB]6 [A,C]2 | %11
 [A,D]8 |] %12
V:2
 x6 D2 | x8 | x8 | x8 | x6 D2 | x8 | x8 | x8 | x8 | x8 | x8 | x8 |] %12
V:3
 [D,A,]3 [D,G,] [D,G,]2 [D,F,]2 | [D,B,]2 [D,B,]2 [^D,B,]2 [E,B,]2 | [E,E]2 [E,D]2 [E,C]2 [E,C]2 | %3
 [F,D]2 [F,A,][^G,B,] A,4 | [D,A,]3 [D,G,] [D,G,]2 [D,F,]2 | [^D,B,]2 [D,B,]2 [E,C]2 [E,B,]2 | %6
 [^E,C]2 [E,C]2 [F,C]2 [F,C]2 | [B,,B,]2 [E,A,]2 [E,A,]2 [E,^G,]2 | [C,A,]6 [C,A,]2 | %9
 [C,_B,]4 [D,A,]4 | [G,,G,]6 [A,,G,]2 | [D,F,]8 |] %12
V:4
 x8 | x8 | x8 | x4 A,4 | x8 | x8 | x8 | x8 | x8 | x8 | x8 | x8 |] %12

